Epson Premium Glossy/Experiment1/experiment1.ti1
CTI1   

DESCRIPTOR "Argyll Calibration Target chart information 1"
ORIGINATOR "Argyll targen"
CREATED "Mon Aug 11 12:25:15 2025"
APPROX_WHITE_POINT "95.106486 100.000000 108.844025"
COLOR_REP "iRGB"
TOTAL_INK_LIMIT "300.0"
WHITE_COLOR_PATCHES "4"
BLACK_COLOR_PATCHES "4"
OFPS_PATCHES "672"

NUMBER_OF_FIELDS 7
BEGIN_DATA_FORMAT
SAMPLE_ID RGB_R RGB_G RGB_B XYZ_X XYZ_Y XYZ_Z 
END_DATA_FORMAT

NUMBER_OF_SETS 680
BEGIN_DATA
210 0.00000 14.24526 14.40870 1.961038 2.399279 2.931838 
293 29.84818 89.23321 22.37893 32.03689 57.50009 14.11347 
680 9.957425 22.45450 58.58827 8.270601 6.292600 29.96295 
311 10.01281 89.43440 12.10237 29.13698 56.26870 11.46081 
326 63.54764 37.84356 60.27095 25.69782 19.28293 33.37033 
43 100.0000 81.99672 0.00000 64.42668 67.23888 10.44547 
170 0.00000 67.45194 15.50266 15.97798 30.35767 7.824944 
279 37.93760 85.00754 13.14048 30.64020 52.62280 10.86574 
4 100.0000 100.0000 100.0000 95.10649 100.0000 108.8440 
116 0.00000 0.00000 57.12867 6.112122 3.044526 27.92607 
485 9.229585 12.81039 72.74667 10.61440 5.733868 47.13812 
276 27.19139 13.38407 0.00000 4.023686 3.405001 1.304983 
27 0.00000 28.09588 55.12896 8.000775 7.434069 26.66585 
254 32.71486 68.58333 41.75998 22.32603 34.18851 19.91875 
622 27.89421 95.38930 65.43753 42.28038 68.68865 48.03207 
108 50.12360 79.17792 13.06934 30.95109 47.41207 9.830189 
113 0.00000 82.46686 29.85774 25.18532 47.29007 15.45753 
203 68.44509 17.07163 28.46106 20.45174 12.19128 8.305184 
534 68.14627 76.79398 45.05897 40.79516 50.11240 24.41684 
122 100.0000 14.14610 85.80113 55.08944 28.35777 69.65869 
64 75.11955 81.34041 0.00000 44.60263 56.41698 9.400621 
65 54.69088 0.00000 72.76977 20.34729 9.965857 47.47481 
654 92.36896 23.22054 65.89042 43.65656 24.49838 39.98582 
239 35.29721 47.31373 100.0000 29.77392 23.75324 97.56713 
146 100.0000 36.67859 100.0000 63.62305 37.04193 98.34946 
114 65.70844 53.24044 0.00000 25.57846 26.56053 4.639424 
627 42.88366 11.69215 91.96562 22.51926 11.06153 79.27876 
380 30.49046 19.81677 54.27532 9.813306 6.725132 25.60401 
385 40.30987 24.80143 8.311561 8.423200 7.443445 2.564794 
520 21.67653 83.57236 10.65532 26.35815 49.05545 9.977698 
247 64.98762 85.15188 16.19597 41.51443 58.35478 12.04207 
267 44.97584 0.00000 42.71192 10.68792 5.679531 15.69714 
574 67.64785 65.80862 48.29923 35.33269 38.81584 25.10158 
379 0.00000 13.40360 86.95311 14.58982 7.349247 69.75967 
176 20.42260 32.48955 73.02555 14.25491 11.34484 48.42161 
213 67.87850 42.81715 100.0000 41.38699 27.82098 97.74068 
189 100.0000 11.46413 11.26693 42.48715 23.01994 4.199345 
111 15.16673 47.85429 100.0000 26.58131 22.35414 97.46521 
647 61.11050 76.62283 7.194144 34.06048 46.83660 8.688048 
35 60.19262 0.00000 38.47049 16.28573 8.628359 13.13514 
73 0.00000 0.00000 27.17912 2.072987 1.429127 6.651531 
198 0.00000 57.47588 57.88448 16.52456 23.62762 32.13362 
400 11.43438 79.74025 46.70099 26.03115 45.02176 25.49001 
336 36.95193 77.47536 57.72459 30.71777 45.24387 35.39195 
456 37.97385 0.00000 15.50591 6.234712 3.656064 3.184639 
528 82.69293 29.00800 47.29895 33.37529 20.89561 20.92589 
171 100.0000 45.59660 82.99936 59.76661 39.16737 66.72573 
23 0.00000 100.0000 50.04096 40.23714 73.33305 32.98501 
602 10.53333 41.58913 77.66315 16.64879 15.48193 55.90395 
609 82.79047 12.23402 83.49452 40.00009 20.46201 64.98455 
2 100.0000 100.0000 100.0000 95.10649 100.0000 108.8440 
571 76.30122 81.05044 88.07368 58.58642 61.81378 79.95789 
490 74.50582 7.203451 91.55349 36.86937 18.12914 79.10336 
590 10.83268 90.06105 57.33742 34.53840 59.13493 37.47089 
157 76.29405 60.52677 68.46583 42.28530 38.46841 46.01248 
137 51.18944 0.00000 56.87888 15.25893 7.766295 28.09994 
232 52.55785 0.00000 100.0000 28.60848 13.16793 95.58524 
465 41.99317 26.17612 20.24693 9.590950 8.286918 5.128293 
540 73.12809 29.77767 65.66359 30.66402 19.28218 39.38402 
373 15.14742 50.10977 0.00000 9.428623 16.64618 3.576249 
253 55.47070 69.29351 34.81829 29.23500 38.36715 16.03898 
149 14.29374 85.90152 0.00000 26.82876 51.55808 9.398829 
624 27.25820 49.70392 20.78919 11.58374 17.48682 6.962003 
389 49.91285 22.39530 85.31916 23.63336 13.38489 67.58927 
470 47.70732 75.46490 25.20690 28.57933 42.95135 12.48986 
131 21.11913 0.00000 13.30099 2.783139 1.886463 2.569730 
553 65.83722 74.90985 28.84914 36.62335 46.61005 14.26783 
475 71.27586 74.75278 73.68678 47.38262 51.13095 55.29433 
398 90.79564 100.0000 12.03194 69.44272 88.80692 15.60661 
306 100.0000 69.61638 14.43046 57.82604 53.51554 9.860952 
304 8.475277 51.94690 92.73777 24.61072 23.64901 83.07952 
186 15.49374 32.44394 0.00000 4.889908 7.520791 2.053828 
364 57.19118 84.17507 25.47925 37.62185 55.34790 14.51027 
587 45.29067 72.31164 48.78229 28.74263 40.19144 26.11776 
185 51.72848 30.08738 14.74034 13.35508 11.20216 4.100205 
370 74.23387 28.69445 27.51156 25.31998 16.92971 8.557536 
63 13.48298 15.69346 0.00000 2.417531 2.846755 1.281819 
127 34.37235 15.22136 77.15209 15.61247 8.440680 53.82204 
391 80.82872 36.56390 15.93280 30.51790 21.95688 5.534628 
503 43.91672 53.76881 61.62321 22.52385 24.56723 36.06632 
209 0.00000 100.0000 83.33687 48.23479 76.53160 75.10945 
447 51.03216 56.54470 53.29664 24.43048 27.26940 27.86894 
649 84.03463 43.99964 47.11800 37.66346 28.06073 21.93714 
662 44.31361 36.60005 71.31825 19.99226 15.62155 46.57477 
167 89.49366 13.09480 0.00000 33.29188 18.46501 2.670500 
245 31.64507 16.28396 100.0000 23.00803 11.47228 95.55289 
94 86.78849 56.55974 0.00000 40.52464 36.08431 5.690604 
395 52.57421 45.81935 59.57673 22.62851 20.82318 33.07137 
160 0.00000 0.00000 85.77204 13.62281 6.048328 67.48565 
240 100.0000 51.23856 12.45654 50.07555 38.13273 6.919649 
348 67.09064 83.15063 81.17967 52.11539 60.67252 68.29076 
147 100.0000 70.49894 30.25883 59.27590 54.80803 15.29971 
569 82.82728 13.56474 53.29757 32.63316 17.66751 25.58436 
474 58.86238 91.90092 9.292609 42.85977 65.94364 12.17079 
89 0.00000 100.0000 17.50320 36.86720 71.98529 15.23521 
225 72.82510 54.15469 9.322879 30.14998 29.38568 5.787570 
246 60.22352 48.70784 85.30171 33.74196 27.06848 69.66804 
415 70.02146 0.00000 65.84429 26.29281 13.23268 38.66885 
582 23.43760 23.38854 92.74054 19.47288 11.12944 80.93882 
425 46.44598 67.13279 81.98918 34.31307 38.30835 66.23043 
340 12.63721 100.0000 15.83541 37.38754 72.26240 14.86103 
136 100.0000 79.47324 88.16112 76.32442 69.54535 80.67372 
619 68.48894 87.11559 66.20246 51.39870 64.60651 47.70623 
451 67.64166 64.81044 35.44343 33.16261 37.21156 15.95939 
30 0.00000 0.00000 41.56491 3.575247 2.029936 14.56409 
441 67.13307 52.11044 68.10414 33.48884 29.18092 44.21572 
651 59.41941 93.04581 33.66696 45.44873 68.33920 20.34495 
1 100.0000 100.0000 100.0000 95.10649 100.0000 108.8440 
321 86.69190 86.40588 100.0000 73.83939 74.22493 104.9888 
612 69.75155 91.57479 91.43462 62.72651 74.17079 88.33395 
525 73.68657 45.47153 89.50889 41.58561 29.48731 77.22717 
85 29.97135 27.11002 0.00000 6.099537 6.768198 1.844847 
241 10.03430 25.65014 42.49221 6.004924 6.080524 15.86524 
223 0.00000 85.51127 60.40710 31.61453 52.97684 39.71259 
216 9.251284 48.33130 62.23375 14.57608 17.73855 35.86213 
378 52.88230 65.48289 70.74179 32.74284 36.71880 49.19174 
192 65.32985 0.00000 51.68283 20.80203 10.73467 23.38020 
309 62.05668 68.61854 18.07371 30.67157 38.76134 9.295012 
527 23.20911 63.06793 74.27438 24.52164 30.75280 53.40726 
172 77.20794 66.99028 58.74184 43.58571 43.67896 35.48278 
479 61.88400 24.13313 8.756339 16.74971 11.59822 2.984518 
106 40.87216 34.12318 30.09203 11.37050 11.20438 9.328117 
319 0.00000 14.66352 58.45471 7.042902 4.484067 29.53705 
452 19.88775 10.00241 88.01831 16.07371 7.751139 71.66156 
88 86.10616 0.00000 56.59855 35.10229 18.00389 28.74558 
281 79.36059 0.00000 43.67377 28.07510 14.62910 17.20340 
636 31.59121 52.11816 68.84112 20.32742 22.37772 44.55124 
166 74.14915 26.38835 77.45811 33.83888 19.74561 55.50893 
62 0.00000 17.78962 28.22884 3.100442 3.348429 7.411355 
250 61.18157 55.96447 47.53393 27.68826 28.73286 22.92885 
96 75.44695 100.0000 68.62062 65.68473 86.01119 54.15818 
371 36.87808 47.51309 9.763360 12.53543 17.00283 4.386466 
11 100.0000 0.00000 0.00000 41.83017 22.05217 2.913230 
640 93.28308 87.60583 71.95847 70.61091 74.83594 56.21913 
572 89.65990 88.58183 11.95801 60.00960 71.31363 12.71398 
383 100.0000 31.62647 72.49488 53.37327 31.28784 49.46636 
3 100.0000 100.0000 100.0000 95.10649 100.0000 108.8440 
677 88.51527 10.63637 19.85458 32.93799 17.97988 5.654818 
286 76.41128 42.03347 57.38129 33.62979 24.98103 30.97133 
449 79.37841 48.07414 79.08277 42.70402 31.61935 59.84122 
320 55.81749 56.07148 65.64871 28.76676 28.94270 41.33044 
382 52.09147 88.76618 100.0000 55.44367 67.10787 104.5839 
438 92.18436 45.52198 71.92416 49.64059 34.28622 49.44888 
507 91.64269 92.96113 26.86536 65.54017 78.67686 18.09114 
567 7.380855 8.044527 5.489781 1.597661 1.680112 1.511203 
283 51.20906 100.0000 31.49132 47.05318 77.12354 20.84260 
324 21.73111 27.96187 34.58236 6.584047 7.015810 11.04998 
426 58.60101 79.46342 66.87920 41.64226 52.37107 46.70383 
446 0.00000 43.32696 84.25262 18.69678 16.99227 66.71772 
476 90.41277 66.93317 91.09251 62.30464 52.24598 83.47800 
51 50.43808 70.27063 60.88958 31.78384 39.93490 37.72113 
614 62.81284 25.78196 86.35552 30.11881 17.37198 69.82249 
478 92.34555 21.12798 54.80158 41.04641 23.03805 27.61734 
252 58.51406 25.18148 60.20055 20.87119 13.29398 32.39113 
615 93.63954 70.21377 78.24797 62.40670 55.17388 62.05343 
547 57.17226 59.11148 7.802847 23.73783 28.90776 5.840116 
480 72.22977 71.07661 89.24341 50.83007 49.44910 80.10578 
205 24.90424 8.258837 48.08470 6.844216 4.002282 19.70438 
419 17.85170 69.51461 40.68158 20.17257 33.77900 19.21827 
603 78.91928 17.66021 38.24687 28.00423 16.05427 13.81190 
536 81.75380 36.88966 35.71931 32.72782 23.03281 13.40238 
397 56.02730 40.35999 69.85797 24.95679 19.54528 45.10105 
408 47.21177 7.087584 17.50705 9.399943 5.597168 3.867994 
357 28.77296 82.13790 0.00000 26.43239 47.77892 8.690217 
637 42.11997 53.08472 93.10645 30.87587 27.45243 84.19670 
105 26.34253 75.41994 100.0000 39.90709 46.79468 101.4811 
349 27.92329 89.15286 88.64422 44.47347 62.34189 81.83554 
305 31.21024 44.32478 0.00000 10.09055 14.36869 3.101764 
343 75.45426 79.98570 35.99543 45.89825 55.64517 19.16248 
430 10.27217 68.88531 79.43078 27.35104 36.07263 62.05538 
125 9.342605 69.05620 48.95204 20.41232 33.42611 25.39361 
504 52.64670 63.26571 44.68329 26.45226 32.58725 21.50497 
251 40.67193 34.88120 88.74027 23.78242 16.41285 74.23432 
526 79.25723 59.74511 91.68306 50.99111 41.66053 83.14777 
218 21.14850 55.53957 63.18326 18.40394 23.36742 37.84600 
193 0.00000 19.54113 73.17825 10.96097 6.778871 47.92928 
224 73.15084 18.17104 0.00000 22.15767 13.36392 2.272261 
102 84.52405 0.00000 86.30029 41.70089 20.50511 69.72035 
420 8.419528 27.69110 70.49022 11.65406 8.827514 44.57913 
512 71.12160 42.94148 9.381921 25.58027 21.76918 4.566129 
330 79.59205 81.49895 69.78640 55.61401 61.31922 51.45481 
599 19.28341 40.87876 40.93536 9.680882 12.49712 15.83362 
667 53.53784 32.24787 92.47526 29.10444 18.21935 81.28937 
405 19.58393 27.06363 52.08429 8.586125 7.556211 23.77484 
202 14.52227 0.00000 26.08387 2.745192 1.785468 6.243006 
100 68.56467 34.19052 0.00000 21.85724 16.78418 2.948293 
334 21.15702 10.39498 60.73262 8.727319 4.867392 31.99181 
158 57.46170 69.01114 0.00000 28.19640 37.82914 6.676712 
56 100.0000 53.94989 100.0000 68.63894 47.07230 100.0214 
8 0.00000 0.00000 0.00000 1.000000 1.000000 1.000000 
564 66.09871 33.91048 19.25761 20.98783 16.18740 5.768176 
623 7.344794 66.31174 92.42026 30.26845 35.23615 84.40716 
443 36.94553 40.40036 45.30967 13.49056 14.21220 19.11661 
607 77.93283 9.605649 7.483962 24.69858 13.70059 2.817279 
34 37.41088 70.59401 0.00000 21.87570 35.75029 6.608332 
257 40.14029 41.52369 60.38760 17.33045 16.30813 33.36526 
302 66.65192 0.00000 83.96188 29.43508 14.26972 65.13358 
604 78.42259 64.54221 81.68951 49.13393 44.17026 66.09109 
473 73.32214 7.264660 37.20140 23.54458 12.71870 12.76401 
523 71.89694 76.91651 17.54067 40.45239 50.33930 10.87756 
429 88.05406 78.31450 41.20781 54.50998 58.54535 22.54603 
129 81.34338 0.00000 0.00000 26.59431 14.19651 2.199305 
161 100.0000 28.98346 57.15986 49.36680 28.93525 30.67764 
413 31.74046 21.04463 30.31311 6.981753 5.845058 8.628138 
360 12.29648 28.00367 17.46661 4.287115 5.990892 4.203068 
173 100.0000 43.77218 45.08871 50.58781 34.66569 20.94206 
134 50.62808 0.00000 26.47478 10.99690 6.036648 6.784309 
262 100.0000 64.22477 85.35894 67.41989 53.24935 73.04688 
661 76.18489 90.79258 56.94188 56.60872 71.28883 38.24821 
560 7.344649 93.52308 42.09991 34.31760 63.00588 25.08634 
531 72.93575 99.37012 11.12465 56.15705 81.21035 14.68887 
236 100.0000 84.86430 32.89615 67.82493 71.50688 19.37319 
407 0.00000 88.21291 87.87399 40.97457 59.61001 80.10080 
140 81.82283 100.0000 100.0000 80.21107 92.31987 108.1461 
548 44.75351 10.31091 79.95898 19.03695 9.605546 58.21895 
231 73.59112 79.13753 59.04125 47.80901 55.46499 37.85509 
266 48.28948 83.27768 82.37035 44.02846 56.57908 69.87253 
184 63.32976 29.37320 73.93571 27.17901 17.13915 50.15284 
228 21.33244 79.98325 90.48308 38.13938 50.21519 83.21580 
335 10.15969 6.063929 40.52238 4.035560 2.543590 13.93235 
345 15.86163 67.74574 0.00000 16.63188 30.94790 5.957515 
643 15.99152 33.44950 84.37993 17.30172 12.80572 66.19967 
288 23.82666 35.43882 10.83685 6.744622 9.356632 3.375869 
123 67.61401 100.0000 0.00000 53.33988 80.53209 13.59536 
375 20.67148 17.74872 73.60430 12.33176 7.200430 48.54297 
29 65.91549 0.00000 0.00000 17.00579 9.252637 1.750003 
461 10.82693 21.98527 87.75738 16.15859 9.360823 71.49896 
463 65.91282 38.75437 34.73774 23.17334 18.75982 12.52886 
498 93.09759 79.52789 53.14085 61.17182 62.82940 32.65177 
529 93.88266 5.668390 5.690969 36.62054 19.59642 3.143288 
416 13.44181 59.77422 25.17325 13.76899 24.07718 9.613899 
399 84.46644 91.09005 65.33940 64.37828 75.40078 48.04399 
585 91.47526 81.50659 80.75638 67.67057 67.18752 68.04620 
660 49.56530 15.55694 10.34057 10.50497 6.977663 2.642581 
352 15.24697 100.0000 85.62000 49.80150 77.25348 79.06061 
358 31.82385 38.32850 72.37284 17.29579 14.78657 48.01106 
344 40.98192 78.35853 100.0000 44.98817 51.89942 102.1989 
404 18.63758 45.69989 55.84303 13.29329 16.04364 28.75559 
290 65.20226 45.14904 23.90951 23.54256 21.55692 8.148585 
377 100.0000 88.07943 80.06391 79.19242 79.47186 68.70357 
543 33.34260 63.54153 90.62471 31.80260 34.22164 80.72704 
95 73.43214 56.05896 42.74001 33.80085 32.01829 19.58398 
91 100.0000 62.60298 0.00000 54.21414 46.81665 7.041256 
292 80.58602 90.04407 31.48494 55.41539 70.31051 19.08392 
588 32.98989 76.31165 90.35338 38.05977 47.00809 82.35900 
488 93.33761 6.802386 92.17079 50.96879 25.34870 80.93017 
6 0.00000 0.00000 0.00000 1.000000 1.000000 1.000000 
323 46.51248 18.03222 64.58970 16.14298 9.467656 36.94931 
542 37.84651 59.52745 10.52547 17.10705 25.73224 5.942983 
428 92.26121 73.06858 21.65737 53.14820 53.70980 12.03559 
495 14.03742 16.80089 34.49347 4.305199 3.763612 10.49343 
310 100.0000 13.26122 52.65081 46.66971 24.88542 25.63496 
570 17.82196 86.47200 72.08775 36.10901 55.91461 54.56291 
516 91.17412 67.51220 55.40541 53.52360 49.24927 32.61198 
576 37.77391 68.51059 20.28195 21.53765 33.95963 9.465036 
177 31.55218 90.68131 100.0000 50.54314 66.56443 104.7371 
442 27.43352 38.35368 88.22702 21.25658 16.27893 73.41103 
635 89.32826 57.09796 76.05808 52.36136 41.38082 56.60345 
427 50.86620 27.35530 74.47634 21.41653 13.65934 50.56283 
143 100.0000 0.00000 80.99324 52.92454 26.48922 61.34843 
312 79.42278 44.69232 0.00000 31.21054 25.41272 4.121231 
97 59.30863 100.0000 70.29064 57.16469 81.56957 55.95529 
316 27.94189 34.18919 100.0000 24.85117 16.26036 96.38006 
81 17.67412 0.00000 100.0000 19.94555 8.701300 95.17931 
199 39.55007 86.55662 67.86405 39.29697 57.76614 49.11916 
435 89.56724 56.77094 46.35305 46.04060 38.67291 22.93500 
163 36.09499 31.00354 54.61748 12.78032 10.65264 26.53639 
466 88.29614 35.79530 62.59861 41.76818 26.82941 36.60452 
439 87.63836 28.88940 26.81103 34.72179 21.83201 8.719462 
259 90.58429 100.0000 71.68485 77.47105 91.99779 58.79310 
431 24.97606 85.56898 60.08258 33.65767 54.09428 39.46393 
315 4.967460 57.19944 12.86856 11.58407 21.49774 5.810683 
645 47.24120 55.45609 83.33514 30.05259 28.69683 66.83067 
532 27.82913 7.533356 70.80546 12.01678 6.077799 44.45492 
45 81.90646 100.0000 0.00000 62.39960 85.20331 14.01989 
502 11.75504 54.24011 77.10452 20.50682 23.32914 56.36616 
101 25.25539 71.97168 17.07923 20.43456 36.01163 9.050966 
249 100.0000 56.84573 40.85948 54.33213 43.07940 19.33399 
72 25.04948 100.0000 19.53085 39.05642 73.10204 15.87984 
522 64.75417 90.37256 44.43040 47.49616 66.39370 26.73246 
13 0.00000 100.0000 0.00000 36.40521 71.80052 12.80184 
130 80.48603 66.34986 34.70676 41.83936 42.75305 16.16002 
26 35.84499 0.00000 100.0000 23.18223 10.37014 95.33097 
41 0.00000 55.85356 42.96709 13.40323 21.38241 18.76762 
403 42.53352 90.44933 91.57144 50.00689 66.41915 87.76685 
48 0.00000 100.0000 33.36000 38.03133 72.45086 21.36677 
386 76.30723 30.30868 6.899574 25.92792 17.76997 3.473808 
455 15.64598 0.00000 55.17982 6.601046 3.339818 25.99921 
353 36.26839 100.0000 44.08289 43.74143 75.24554 28.38026 
487 59.65394 15.39496 92.90762 29.69090 15.12252 81.49410 
287 50.79637 100.0000 84.97050 57.80694 81.40587 78.31857 
632 14.03147 77.21932 18.39793 21.96682 41.05999 10.28279 
376 84.18657 100.0000 35.54044 65.91063 86.79919 23.86151 
219 0.00000 67.01495 70.56139 23.54717 33.05034 48.72433 
440 71.46262 31.54704 51.27327 27.06517 18.23531 24.12969 
31 100.0000 19.87186 100.0000 60.85927 31.51515 97.42819 
492 61.91511 20.78656 37.53680 18.27608 11.53837 13.01627 
145 0.00000 58.37547 83.54197 23.51373 26.99137 67.19295 
275 100.0000 88.41997 49.02206 72.27985 77.07920 31.14734 
328 84.41568 44.57979 100.0000 52.61436 34.33404 98.40656 
381 66.79427 70.90276 63.18965 40.18360 44.68609 40.82150 
118 54.87676 26.99407 0.00000 13.79398 10.70876 2.200237 
154 26.66823 90.65221 34.54070 33.44534 59.58318 19.75939 
298 82.68390 74.55305 80.75255 56.82760 55.60191 66.37477 
261 71.92230 43.89926 44.42438 29.12647 23.66362 19.44731 
33 100.0000 28.08011 40.62063 46.55228 27.57082 16.58971 
390 93.38974 92.84693 90.62335 80.16558 84.56194 87.89445 
104 89.53370 0.00000 13.99183 33.08516 17.50730 4.124079 
22 100.0000 100.0000 62.77877 83.52510 95.36818 47.84366 
42 54.87278 42.81245 0.00000 17.12787 17.37810 3.312026 
40 72.68836 56.64487 100.0000 48.70593 38.28399 99.37487 
448 36.63899 72.06520 69.35039 30.27661 40.30291 48.15544 
356 20.53406 69.30391 28.26441 19.09354 33.21710 12.34993 
558 22.78220 67.04184 86.52647 30.01803 35.85923 73.69692 
204 50.02266 42.52924 100.0000 32.97543 23.36911 97.32436 
481 91.63831 39.76046 20.13996 39.73426 27.79592 7.274948 
621 25.47452 60.73645 12.21767 14.98754 25.37689 6.263143 
296 62.56117 29.04150 100.0000 35.55975 20.35573 96.60658 
229 33.51688 100.0000 30.65337 41.52393 74.28158 20.17997 
566 83.84914 59.42869 10.00036 39.62532 37.28457 6.908749 
271 90.10691 28.24572 36.79140 37.52498 23.00960 13.76946 
634 6.254851 48.78465 46.69107 11.69717 16.79859 20.78916 
541 43.90004 25.57723 38.45783 11.67886 9.049568 13.45116 
318 82.56082 20.09686 21.83219 29.34551 17.28961 6.315067 
248 13.17526 79.87151 61.34756 28.91959 46.31806 39.61696 
392 22.07573 47.11271 31.44041 10.73711 15.74737 10.88292 
545 39.07406 26.67807 77.86593 18.36809 11.82034 55.41690 
628 24.24676 83.46236 48.33651 30.02764 50.45539 27.65872 
227 23.32406 49.51543 90.46746 24.47195 22.46803 78.55046 
9 100.0000 100.0000 0.00000 77.23538 92.85269 14.71507 
211 47.77468 0.00000 85.93123 21.59754 10.15401 68.13550 
489 34.24545 49.18129 34.73489 14.00189 18.35218 12.93164 
260 81.44826 50.16468 17.40105 34.75789 29.67996 7.154410 
537 57.43186 14.18875 74.28730 22.58676 12.00800 49.90949 
511 59.54086 49.22140 14.26643 21.43515 22.37123 5.732117 
58 40.48236 62.82488 100.0000 36.91623 35.97476 99.55006 
460 92.19855 36.06858 51.05606 42.74442 27.68102 24.93327 
120 81.02996 25.03887 58.26017 33.51657 19.82988 30.89961 
592 82.51999 50.47048 65.15626 41.99594 32.82492 40.78135 
437 90.78130 60.68020 64.77531 52.08660 43.71920 41.89135 
327 92.34359 43.29297 36.17849 42.56315 30.46392 14.58341 
673 68.86765 51.93760 56.58470 31.87487 28.55252 30.93770 
138 30.72686 17.91526 41.83749 7.705727 5.572981 15.21888 
565 33.56933 10.97978 61.75509 11.24028 6.188432 33.26241 
583 53.34582 55.30882 35.44136 22.33646 25.79187 14.32407 
339 46.90195 92.26582 8.146172 38.23828 63.95510 11.88259 
409 73.68683 65.72304 0.00000 35.29846 39.14972 6.557571 
242 26.28458 25.89718 81.15213 16.36790 10.50077 60.44433 
168 14.51003 50.53321 17.26440 9.960040 17.07568 5.993302 
655 30.79121 63.05418 62.98215 23.06939 30.31919 38.70762 
354 59.36355 61.29856 82.48190 37.08556 35.81463 66.41428 
258 92.30308 24.42170 15.70635 37.14296 22.14473 5.170509 
513 41.81449 7.564563 53.62409 11.64654 6.323840 24.80820 
573 91.21394 77.30131 63.81931 60.45673 60.27944 43.50441 
74 0.00000 29.97408 37.19906 5.627181 6.991618 12.60079 
530 58.05063 29.82108 31.03461 17.06066 12.92072 9.806742 
159 60.04224 33.48495 46.15492 20.49263 15.49623 19.65099 
469 28.22428 91.33060 77.35821 42.47177 63.99740 63.44418 
580 8.713936 93.60162 71.21603 40.12022 65.42751 54.98906 
639 24.23806 72.72089 53.04098 24.57026 38.27740 29.74682 
7 0.00000 0.00000 0.00000 1.000000 1.000000 1.000000 
597 10.07647 93.14019 93.29354 46.80841 67.56890 91.46444 
295 68.50238 70.32537 100.0000 52.32948 49.18253 101.2878 
333 75.44476 0.00000 16.00692 23.01176 12.30386 4.083654 
82 0.00000 17.99244 0.00000 1.962695 2.925120 1.320901 
156 45.85250 45.85691 34.03962 16.23900 17.99732 12.36563 
366 90.61710 21.02821 80.26660 45.81175 24.76018 60.22347 
14 100.0000 0.00000 100.0000 59.70128 29.19948 97.04219 
201 100.0000 11.87387 35.27464 44.12192 23.71530 12.68167 
653 90.64695 23.59288 92.08151 50.10290 26.99033 81.12196 
669 53.71101 9.832127 52.98335 15.89105 8.689261 24.43875 
568 9.167972 92.65505 25.99496 32.11550 61.11924 16.11432 
53 0.00000 100.0000 68.09942 43.93606 74.81238 52.46760 
121 0.00000 30.22831 17.64007 4.101864 6.453171 4.346026 
663 70.57581 55.80515 80.09155 40.06860 34.17233 62.06397 
642 45.83636 6.046296 69.18564 16.22302 8.206569 42.48326 
278 39.52779 55.10051 23.08481 16.42751 22.75351 8.466094 
90 100.0000 43.60887 62.57282 53.72441 35.84782 37.68584 
280 60.53757 84.95541 0.00000 38.73794 56.78002 9.779581 
194 50.46144 15.31051 100.0000 28.50553 14.18294 95.78658 
24 42.27294 100.0000 100.0000 60.37466 82.09216 107.2166 
665 37.15263 23.34327 90.12531 21.33724 12.19112 76.09472 
417 60.88454 58.82861 25.08860 26.14760 29.88903 10.05185 
618 63.29400 83.41858 54.04988 43.64921 57.32488 33.37283 
491 88.02472 35.13752 92.93351 50.29563 29.98973 83.32874 
608 30.44343 31.99561 22.44753 7.774711 8.795956 6.012721 
10 0.00000 0.00000 100.0000 18.87111 8.147314 95.12896 
351 46.85607 12.18519 36.35335 11.02805 6.668502 11.75294 
670 9.149867 12.01887 50.88762 5.807116 3.725502 22.10492 
509 95.91301 47.21211 92.49490 59.80332 39.52596 83.82305 
148 83.91188 0.00000 71.92357 36.95318 18.55391 47.07950 
372 50.18837 85.83575 59.42994 40.43480 57.86432 39.12474 
616 72.93056 28.25514 39.71752 25.67884 16.86385 15.02622 
117 28.38239 59.22074 0.00000 14.63257 24.29323 4.778270 
256 58.52707 20.54255 20.71473 15.18041 10.06800 5.317884 
44 62.32189 100.0000 100.0000 68.41676 86.23869 107.5934 
126 76.47773 42.74655 27.26574 29.78128 23.75098 9.536806 
289 41.03991 63.60019 55.36739 24.32488 31.50600 30.68732 
18 100.0000 0.00000 42.92649 44.58786 23.15507 17.43824 
112 100.0000 86.00517 15.58366 67.36615 72.51736 13.27454 
598 9.735928 75.30143 7.332812 20.17322 38.57614 7.840318 
39 100.0000 100.0000 41.10417 79.75053 93.85859 27.96265 
