Patch Sets/ac_2420_wb16.ti1
CTI1   

DESCRIPTOR "Argyll Calibration Target chart information 1"
ORIGINATOR "Argyll targen"
CREATED "Tue Apr  8 19:51:28 2025"
APPROX_WHITE_POINT "95.106486 100.000000 108.844025"
COLOR_REP "iRGB"
WHITE_COLOR_PATCHES "16"
BLACK_COLOR_PATCHES "16"
OFPS_PATCHES "2388"

NUMBER_OF_FIELDS 7
BEGIN_DATA_FORMAT
SAMPLE_ID RGB_R RGB_G RGB_B XYZ_X XYZ_Y XYZ_Z 
END_DATA_FORMAT

NUMBER_OF_SETS 2420
BEGIN_DATA
1 100.0000 100.0000 100.0000 95.10649 100.0000 108.8440 
2 88.88002 91.97262 100.0000 79.40437 82.81427 106.3537 
3 67.57618 35.03668 60.84803 27.35024 19.19849 33.90562 
4 14.03607 4.495980 84.21952 13.95062 6.460026 64.87842 
5 50.47974 59.40170 18.84284 21.48350 27.87374 7.883062 
6 85.02783 41.14175 52.38424 38.50223 27.25634 26.27680 
7 36.64037 100.0000 22.17975 41.63840 74.41545 16.80738 
8 12.09334 30.33503 29.35987 5.459733 7.090649 8.509372 
9 11.11221 9.343452 26.29058 2.807428 2.290446 6.418995 
10 58.01607 94.12295 28.08202 45.08120 69.38816 17.88469 
11 0.00000 12.18184 11.72620 1.717555 2.065709 2.377807 
12 52.45505 6.062007 29.50907 12.13749 6.856730 8.180186 
13 22.27673 57.40042 29.72078 14.17754 22.83374 11.25349 
14 74.78447 76.85720 87.56961 54.96644 56.29629 78.17868 
15 26.44474 50.23962 23.45760 11.78099 17.82965 7.889228 
16 96.08575 61.32509 28.37804 51.29190 44.35777 12.85383 
17 87.13205 69.64380 0.00000 46.56362 47.76685 7.627612 
18 83.31620 95.83536 33.47724 61.79300 79.85973 21.60727 
19 80.99613 24.82552 100.0000 45.99713 24.77033 96.90901 
20 100.0000 72.17587 66.07062 65.85278 58.82466 45.66547 
21 90.72962 79.07592 52.06477 58.74674 61.20304 31.47056 
22 25.00661 22.86062 19.68059 5.165140 5.326329 4.624916 
23 54.95709 61.72357 75.44232 33.19651 34.32104 55.33960 
24 74.37953 84.57086 75.16093 55.55001 63.99360 59.47710 
25 93.36758 60.22059 58.77941 52.74962 43.92667 35.08796 
26 15.40805 65.15628 57.99875 20.65122 30.59768 33.38119 
27 6.695314 54.01118 93.60107 25.56915 25.18646 85.00120 
28 44.57354 68.39842 21.82538 23.59105 34.92631 10.02035 
29 5.110046 19.80269 15.96711 2.706593 3.542033 3.452658 
30 86.98520 35.37718 81.00355 45.50308 28.06095 62.05935 
31 34.79829 50.44164 46.63077 16.06884 19.85173 21.10032 
32 35.37041 14.20579 78.45964 16.15503 8.556140 55.81796 
33 27.05079 0.00000 100.0000 21.29952 9.399413 95.24275 
34 0.00000 0.00000 100.0000 18.87111 8.147314 95.12896 
35 100.0000 0.00000 0.00000 41.83017 22.05217 2.913230 
36 0.00000 100.0000 100.0000 54.27632 78.94783 106.9308 
37 0.00000 100.0000 0.00000 36.40521 71.80052 12.80184 
38 100.0000 0.00000 100.0000 59.70128 29.19948 97.04219 
39 0.00000 42.91639 100.0000 24.33174 19.06706 96.94919 
40 0.00000 73.24434 0.00000 18.54639 36.08786 6.848844 
41 0.00000 0.00000 70.97169 9.255573 4.301708 44.48295 
42 100.0000 0.00000 55.92257 46.70919 24.00347 28.61153 
43 100.0000 73.39581 100.0000 77.32878 64.44955 102.9181 
44 100.0000 48.45257 0.00000 48.91110 36.21205 5.273561 
45 27.25131 0.00000 0.00000 3.464473 2.270690 1.115481 
46 100.0000 100.0000 55.63863 82.06045 94.78241 40.12919 
47 0.00000 100.0000 56.89296 41.47128 73.82662 39.48533 
48 44.44801 100.0000 100.0000 61.06240 82.44676 107.2488 
49 44.86305 100.0000 0.00000 43.32741 75.36963 13.12620 
50 38.14951 0.00000 100.0000 23.78161 10.67918 95.35906 
51 0.00000 24.07127 0.00000 2.672435 4.344402 1.557483 
52 54.02184 0.00000 0.00000 11.33709 6.329839 1.484378 
53 0.00000 0.00000 43.15749 3.789361 2.115568 15.69185 
54 100.0000 23.45287 100.0000 61.29100 32.37848 97.57210 
55 0.00000 35.13753 40.14075 6.978802 9.128976 14.79536 
56 34.32746 28.59423 0.00000 7.294464 7.738165 1.969144 
57 51.32022 27.89328 100.0000 30.35665 17.39215 96.30856 
58 0.00000 0.00000 0.00000 1.000000 1.000000 1.000000 
59 61.53585 0.00000 39.04924 17.00747 8.992424 13.53301 
60 56.79167 100.0000 44.88604 50.96775 78.95818 29.31785 
61 64.51498 0.00000 100.0000 34.13388 16.01685 95.84415 
62 0.00000 73.01990 100.0000 36.29770 42.99563 100.9379 
63 69.02239 52.63778 0.00000 27.19968 27.08137 4.654575 
64 100.0000 100.0000 22.04063 77.94706 93.13731 18.46354 
65 100.0000 38.86131 44.69932 49.26300 32.10646 20.22283 
66 60.52004 68.64254 100.0000 47.31193 45.34825 100.8119 
67 100.0000 82.21021 0.00000 64.55924 67.50395 10.48965 
68 68.04535 100.0000 100.0000 71.45176 87.80354 107.7356 
69 74.65349 100.0000 0.00000 57.52011 82.68743 13.79124 
70 100.0000 0.00000 27.64732 42.94042 22.49620 8.761045 
71 0.00000 75.01599 60.07522 25.21729 40.29546 37.23684 
72 0.00000 100.0000 37.91719 38.52715 72.64916 23.97832 
73 100.0000 34.23618 100.0000 63.09994 35.99585 98.17509 
74 31.04253 65.18494 0.00000 17.74632 29.73066 5.663856 
75 0.00000 56.39189 0.00000 10.84424 20.68573 4.281441 
76 44.70270 0.00000 54.77449 12.53243 6.406805 25.88243 
77 100.0000 0.00000 76.62875 51.62809 25.97072 54.51991 
78 62.49126 33.59938 45.18877 21.57179 16.10316 18.96350 
79 0.00000 100.0000 90.11596 50.51818 77.44482 87.13632 
80 100.0000 30.73728 0.00000 44.55434 27.49975 3.821296 
81 43.88219 100.0000 77.07605 52.93473 79.17503 65.39505 
82 100.0000 56.53470 23.59702 52.54106 42.17186 10.49002 
83 0.00000 21.02555 100.0000 20.15952 10.72378 95.55844 
84 72.79334 0.00000 0.00000 20.95790 11.29036 1.935192 
85 10.77883 100.0000 0.00000 36.86554 72.03787 12.82341 
86 22.65648 100.0000 100.0000 55.99092 79.83189 107.0111 
87 0.00000 52.63954 46.41504 12.73088 19.24520 20.98817 
88 0.00000 0.00000 8.521231 1.140810 1.056315 1.741659 
89 0.00000 43.08800 74.12567 15.60367 15.65088 50.74781 
90 10.12043 49.04336 100.0000 26.55646 22.89714 97.57133 
91 100.0000 100.0000 90.51881 91.49148 98.55422 89.80341 
92 19.26451 0.00000 36.47972 4.217213 2.432421 11.36794 
93 24.88126 60.02571 100.0000 32.21787 31.78291 98.98837 
94 23.23836 100.0000 22.99050 38.97810 73.03781 16.95250 
95 80.15659 0.00000 59.49414 31.35072 16.00261 31.59205 
96 65.78628 100.0000 62.59563 58.59089 82.51669 46.46432 
97 76.43323 39.92337 0.00000 27.94290 21.84529 3.604714 
98 27.64178 46.21439 81.22450 21.09758 19.56373 62.06182 
99 100.0000 20.66949 62.94068 49.40304 27.07624 36.64645 
100 12.18226 0.00000 100.0000 19.43250 8.436769 95.15527 
101 39.17855 60.57797 50.34194 21.59343 28.26389 25.52955 
102 100.0000 70.17394 45.63053 60.92093 55.20216 24.77777 
103 0.00000 81.69873 39.05205 25.66976 46.72111 20.36131 
104 64.08596 44.19749 100.0000 39.72424 27.52769 97.77164 
105 81.34400 100.0000 21.88395 62.70196 85.27801 17.69866 
106 100.0000 54.05009 100.0000 68.67513 47.14468 100.0335 
107 100.0000 100.0000 34.31462 78.95902 93.54203 23.79368 
108 0.00000 100.0000 28.06939 37.54969 72.25824 18.82995 
109 100.0000 32.85095 79.67234 55.64346 32.56989 60.26992 
110 21.00202 100.0000 42.94202 40.64769 73.66874 27.40751 
111 100.0000 64.74051 0.00000 55.16758 48.72327 7.359072 
112 35.78924 0.00000 73.86573 14.32255 6.825218 48.73889 
113 59.53985 73.45778 0.00000 31.44885 42.91014 7.486193 
114 0.00000 100.0000 67.39386 43.76395 74.74355 51.56110 
115 29.54307 0.00000 29.84593 5.194084 3.012664 7.958149 
116 0.00000 28.63587 61.83971 9.444405 8.153202 33.83237 
117 20.88791 20.99244 100.0000 21.62306 11.47267 95.62591 
118 100.0000 31.44442 27.81163 45.80718 28.20771 9.782032 
119 0.00000 33.62634 22.44216 5.011654 7.843411 5.972594 
120 59.49952 0.00000 77.69600 23.87536 11.62565 54.82916 
121 86.45758 0.00000 100.0000 48.23309 23.28645 96.50481 
122 90.04761 30.32658 100.0000 53.71042 30.04447 97.52082 
123 58.34264 100.0000 33.69243 50.29533 78.77034 22.11677 
124 36.65307 55.53677 0.00000 15.03708 22.36779 4.385299 
125 0.00000 64.23345 10.59453 14.30356 27.28975 6.401835 
126 58.64886 32.27934 0.00000 16.38241 13.39950 2.583300 
127 0.00000 32.70274 0.00000 4.092345 7.183826 2.030790 
128 0.00000 63.33525 100.0000 31.57706 33.55567 99.36431 
129 0.00000 0.00000 34.08096 2.699467 1.679680 9.951268 
130 79.92169 54.33992 24.45454 35.54993 32.18770 9.765027 
131 68.50113 46.60930 64.43335 31.60790 25.67875 39.07633 
132 70.39050 85.05295 100.0000 61.92777 66.76375 104.1759 
133 55.75668 100.0000 0.00000 47.48020 77.51082 13.32079 
134 50.55279 83.14918 100.0000 51.13824 59.39014 103.3209 
135 73.38196 0.00000 17.96211 21.80433 11.67075 4.503672 
136 28.73701 100.0000 65.22724 45.99125 75.95141 48.98196 
137 9.132197 0.00000 64.79503 8.101116 3.881220 36.54190 
138 49.85667 37.96763 100.0000 31.77198 21.05549 96.94115 
139 79.19647 100.0000 73.93327 69.55096 87.84451 61.56589 
140 35.68323 19.32633 34.06764 8.067983 6.079109 10.51054 
141 34.87216 100.0000 0.00000 40.47687 73.89988 12.99263 
142 100.0000 90.55399 31.57770 71.55121 79.16172 19.98828 
143 79.84156 100.0000 100.0000 78.82118 91.60325 108.0809 
144 25.66542 46.89543 0.00000 9.788041 15.32680 3.302640 
145 74.76565 61.92535 44.99586 37.32520 37.32014 22.08234 
146 100.0000 10.13859 0.00000 42.19269 22.77711 3.034073 
147 68.60882 62.46012 77.07305 40.74028 38.62903 58.20621 
148 100.0000 100.0000 67.64360 84.65478 95.81998 53.79381 
149 0.00000 66.13864 73.07371 23.79418 32.48675 52.06812 
150 83.44409 0.00000 32.31416 29.62849 15.58478 10.29221 
151 100.0000 82.78147 100.0000 82.78725 75.36498 104.7376 
152 90.71258 11.91662 0.00000 34.19836 18.81388 2.690099 
153 100.0000 43.21945 72.60521 56.05835 36.61019 50.50653 
154 0.00000 0.00000 90.99428 15.42611 6.769534 76.98381 
155 33.52179 92.07236 100.0000 51.97607 68.77894 105.0891 
156 45.92267 49.96791 22.19633 16.56593 20.17370 7.663093 
157 0.00000 10.88702 89.32050 15.23839 7.343275 73.99412 
158 73.57258 57.27413 100.0000 49.49345 39.05112 99.48147 
159 52.91205 0.00000 21.43137 11.55503 6.364192 5.015513 
160 19.65436 63.26262 23.87953 15.81303 27.35093 9.663421 
161 88.91871 0.00000 90.39407 46.49514 22.81363 77.32032 
162 44.69369 0.00000 0.00000 7.866465 4.540372 1.321751 
163 38.88315 85.65244 68.21713 38.59972 56.50971 49.36742 
164 25.85624 36.23938 100.0000 24.91558 16.93983 96.50782 
165 9.514960 0.00000 0.00000 1.379169 1.195501 1.017767 
166 90.14628 100.0000 46.43145 71.93491 89.74254 31.49100 
167 10.43946 0.00000 78.81942 11.87454 5.399750 55.99278 
168 0.00000 82.13507 0.00000 23.68236 46.35839 8.560851 
169 0.00000 0.00000 0.00000 1.000000 1.000000 1.000000 
170 30.97991 66.90963 100.0000 36.41079 38.48402 100.0610 
171 63.15134 72.10545 37.67469 34.59613 43.22622 18.35734 
172 0.00000 89.70372 90.43778 42.89861 62.02500 85.16022 
173 33.58986 36.37542 61.66085 14.66801 13.06849 34.30309 
174 60.29315 11.49950 0.00000 14.58937 8.664041 1.763656 
175 13.36189 91.59435 0.00000 30.66411 59.34707 10.70033 
176 0.00000 7.984726 0.00000 1.254028 1.507986 1.084677 
177 68.79870 100.0000 81.90004 65.38150 85.42501 73.54291 
178 100.0000 0.00000 9.670028 42.00027 22.12020 3.809182 
179 10.18187 21.50842 0.00000 2.766277 3.907465 1.468199 
180 100.0000 49.74241 51.25634 53.36047 38.65239 26.67070 
181 72.78353 19.55397 100.0000 39.94648 20.68122 96.43837 
182 100.0000 0.00000 36.99168 43.84517 22.85804 13.52644 
183 19.41300 80.44812 100.0000 41.79784 52.09738 102.4051 
184 100.0000 81.66929 88.00883 77.60230 72.18448 80.84140 
185 100.0000 27.66802 37.66893 46.12598 27.29433 14.67125 
186 47.98499 100.0000 19.87222 44.98682 76.15762 16.25534 
187 56.14695 83.14430 0.00000 35.55944 53.42017 9.298438 
188 19.99326 100.0000 76.70924 47.57701 76.42478 64.59328 
189 0.00000 22.37522 12.88856 2.721330 4.010339 2.905581 
190 25.03077 0.00000 17.54325 3.546240 2.259189 3.541129 
191 52.17468 0.00000 100.0000 28.45495 13.08878 95.57804 
192 0.00000 47.50304 22.93770 8.554104 14.87652 7.310077 
193 30.69116 0.00000 57.07390 9.233394 4.655105 28.01635 
194 0.00000 18.83763 44.69511 5.053536 4.297608 17.18018 
195 100.0000 81.18531 10.32438 64.11527 66.31498 11.27043 
196 100.0000 10.14391 20.05826 42.78786 23.01561 6.167402 
197 0.00000 31.66261 100.0000 21.76523 13.93474 96.09367 
198 100.0000 47.55208 18.64149 49.14954 35.85894 7.912560 
199 90.94640 0.00000 0.00000 33.92015 17.97373 2.542581 
200 100.0000 60.23349 79.34756 63.79961 49.03601 62.50718 
201 0.00000 48.92785 55.30326 12.99335 17.36551 28.49137 
202 85.01973 16.87679 21.27428 30.79383 17.55616 6.113317 
203 50.40082 11.86335 0.00000 10.35758 6.516388 1.571977 
204 0.00000 70.23112 32.46809 18.51588 33.56643 14.42671 
205 38.55106 38.53313 28.58491 11.55516 12.75854 8.937385 
206 100.0000 19.13281 91.73845 57.60342 30.08614 80.67060 
207 84.52564 22.50164 71.72730 38.82316 21.70161 47.31784 
208 0.00000 75.50909 9.685721 19.95255 38.62699 8.158904 
209 32.99220 91.93123 39.15100 36.15166 62.27333 22.87446 
210 100.0000 80.13313 61.21245 69.23776 67.34261 41.40002 
211 0.00000 91.04119 100.0000 47.48465 65.36640 104.6669 
212 16.51909 62.50563 72.54025 22.95973 29.63621 50.81276 
213 48.90951 55.29058 0.00000 18.76194 24.15194 4.533510 
214 0.00000 26.41709 40.16303 5.403684 5.974696 14.28415 
215 68.25095 73.57732 0.00000 36.01589 45.36027 7.718601 
216 56.52626 0.00000 55.97639 17.30116 8.839403 27.28712 
217 59.75878 100.0000 22.23325 50.02055 78.73693 17.21762 
218 42.37628 75.67304 15.67279 26.38206 42.05357 9.572694 
219 0.00000 100.0000 79.25613 46.97232 76.02669 68.45989 
220 88.17078 0.00000 70.04370 39.70918 20.03126 44.66546 
221 69.93251 87.85055 70.72342 53.83984 66.47201 53.79900 
222 34.71771 100.0000 83.11310 52.19778 78.58319 74.92250 
223 78.94429 100.0000 43.38297 63.15577 85.26696 28.77894 
224 76.46897 67.57497 100.0000 55.81788 48.96297 101.0617 
225 45.20158 20.70681 79.09555 19.80509 11.33673 57.15212 
226 100.0000 100.0000 45.51504 80.36017 94.10241 31.17367 
227 36.95661 64.44099 69.00806 26.55181 32.86981 46.46700 
228 0.00000 62.50108 81.69012 24.64966 30.19898 64.68476 
229 38.50866 72.46021 0.00000 23.13799 37.83730 6.944704 
230 0.00000 33.89976 81.82243 15.68136 12.19892 61.89874 
231 31.46487 0.00000 86.77890 17.25470 7.881986 69.41391 
232 10.15383 70.51505 0.00000 17.54110 33.45566 6.393698 
233 40.87168 16.53147 12.03871 7.743995 5.674067 2.810273 
234 100.0000 100.0000 0.00000 77.23538 92.85269 14.71507 
235 54.27655 46.52169 100.0000 35.80258 26.50604 97.78098 
236 81.06666 19.65658 0.00000 27.53357 16.36461 2.568341 
237 15.56578 11.34178 0.00000 2.287701 2.306721 1.184414 
238 27.27941 63.24333 61.32217 22.10731 29.98893 36.79519 
239 0.00000 20.88976 70.03128 10.28665 6.750027 43.63484 
240 13.87659 33.66591 43.38463 7.802754 9.053282 16.98403 
241 0.00000 0.00000 52.26917 5.211301 2.684254 23.18135 
242 73.47603 71.52673 25.89687 38.99463 45.17582 12.63607 
243 56.83573 100.0000 100.0000 65.82531 84.90253 107.4720 
244 0.00000 10.83583 21.87914 2.104234 2.085587 4.830118 
245 77.42361 47.60966 100.0000 48.59827 33.59392 98.47522 
246 100.0000 0.00000 88.65574 55.43139 27.49180 74.55226 
247 0.00000 90.63275 58.30776 34.67003 59.77794 38.60014 
248 67.39573 29.14163 65.41142 27.14623 17.31324 38.88030 
249 39.49698 100.0000 46.81811 45.00720 75.85175 30.53502 
250 59.26101 61.68557 62.78694 31.93581 34.01354 38.72701 
251 32.86219 100.0000 100.0000 57.87831 80.80503 107.0996 
252 57.74523 37.78045 31.04828 18.53325 16.06984 10.34366 
253 11.01644 0.00000 9.854739 1.651739 1.315784 1.944691 
254 0.00000 100.0000 9.288201 36.56522 71.86451 13.64462 
255 100.0000 22.72325 18.59319 43.84172 25.24876 6.130998 
256 100.0000 76.72204 20.60028 61.91981 61.22501 12.69638 
257 0.00000 73.04906 42.90254 21.19655 36.98099 21.32187 
258 50.63938 100.0000 70.10489 53.42090 79.64474 55.53218 
259 90.35736 90.00415 0.00000 61.32107 73.48100 11.81394 
260 50.20443 73.31842 79.85864 38.15111 45.01174 63.88757 
261 40.73034 0.00000 91.33901 21.18649 9.725263 77.90106 
262 100.0000 52.50337 86.81767 63.22743 44.08725 74.04981 
263 21.75189 26.86686 14.24108 4.982738 6.099474 3.452539 
264 19.15429 100.0000 55.24031 42.40175 74.34294 37.87880 
265 77.61227 49.19368 0.00000 31.35074 27.50766 4.518232 
266 100.0000 64.58455 36.14635 57.01675 49.34929 17.44893 
267 29.33474 76.59375 100.0000 41.11997 48.39776 101.7267 
268 45.52264 8.388859 100.0000 26.28557 12.37493 95.55451 
269 41.35125 10.09569 0.00000 7.179915 4.720875 1.392752 
270 0.00000 55.30472 90.21575 24.58267 25.52446 78.66561 
271 24.84682 27.66819 63.03968 11.60278 9.001980 35.26370 
272 59.97760 34.43007 100.0000 35.30535 21.72415 96.88412 
273 19.08803 39.16934 0.00000 6.739290 10.63883 2.558297 
274 0.00000 83.06079 78.45606 34.59096 51.64789 63.15939 
275 100.0000 88.72514 51.47357 72.89726 77.66103 33.36644 
276 21.17999 0.00000 49.02665 6.172801 3.243066 20.38044 
277 49.67840 0.00000 34.04183 11.31373 6.121687 10.33388 
278 41.88397 47.15823 100.0000 31.53102 24.58880 97.63587 
279 81.10237 100.0000 83.29800 73.64654 89.63542 76.23537 
280 83.18013 29.31812 58.85915 35.84559 22.00857 31.83244 
281 40.79959 63.76576 100.0000 37.42528 36.85532 99.69323 
282 100.0000 40.25903 54.48749 51.20883 33.43202 28.78364 
283 70.47060 0.00000 80.91789 30.63746 15.00061 60.18308 
284 100.0000 44.72975 28.39042 48.96551 34.44762 11.06878 
285 68.82011 31.72664 0.00000 21.51898 15.89265 2.794017 
286 60.19859 78.16671 46.75737 37.70665 49.66321 25.81592 
287 100.0000 100.0000 100.0000 95.10649 100.0000 108.8440 
288 9.046543 100.0000 10.42842 36.94784 72.05818 13.82554 
289 84.59889 0.00000 19.31595 29.51197 15.63676 5.229302 
290 91.85418 100.0000 0.00000 70.07390 89.16021 14.37949 
291 0.00000 37.87765 14.09444 5.509076 9.513939 4.054150 
292 42.72827 32.37002 86.64025 23.17979 15.43644 70.31534 
293 28.40831 75.53040 0.00000 22.47249 39.96360 7.390194 
294 38.60660 70.24220 38.18733 24.17210 36.41990 17.90792 
295 65.88032 64.52656 39.93863 32.59383 36.66601 18.62884 
296 24.12460 36.07505 62.21647 12.89161 12.04062 34.83117 
297 72.68728 58.61427 72.10980 40.16063 36.10286 50.55584 
298 100.0000 0.00000 66.78977 49.04340 24.93701 40.90607 
299 35.61265 0.00000 10.49796 5.446447 3.270251 2.217121 
300 40.20869 37.39317 0.00000 10.56807 11.99317 2.618069 
301 55.23763 100.0000 82.33455 58.76810 81.99937 73.94403 
302 100.0000 12.59588 100.0000 60.21586 30.22850 97.21372 
303 0.00000 68.82993 51.76232 20.40073 33.19987 27.80971 
304 30.98936 47.56948 30.09471 12.31750 16.78380 10.35648 
305 100.0000 91.83998 100.0000 88.88632 87.56140 106.7706 
306 35.90792 13.92420 59.08237 11.44007 6.651612 30.39224 
307 41.63858 51.90974 73.73380 24.11435 24.07624 51.36457 
308 89.57829 34.65955 0.00000 36.29672 24.37306 3.652667 
309 32.80021 74.76359 76.77563 32.79794 43.51998 59.11992 
310 75.24305 40.55837 33.74062 28.99815 22.43242 12.38929 
311 47.71003 100.0000 39.87216 46.66251 76.81641 25.59455 
312 100.0000 18.95538 28.80743 44.09611 24.65438 9.617713 
313 58.44984 74.18133 25.32563 32.26410 43.80277 12.50522 
314 73.09420 0.00000 39.62323 23.47005 12.31641 14.20348 
315 31.09949 27.84850 100.0000 24.32033 14.26912 96.02365 
316 82.83393 100.0000 9.651240 63.23612 85.61500 14.94443 
317 30.06398 87.81543 22.76530 31.13315 55.58886 13.92117 
318 76.32470 31.26365 90.60464 40.29378 23.79288 78.22922 
319 85.15704 86.13022 41.26902 57.15553 67.12529 24.10460 
320 100.0000 18.16549 41.06859 45.32052 25.01556 16.46316 
321 63.31378 43.61552 51.27559 25.33321 21.46697 24.84679 
322 0.00000 80.14717 18.57102 22.98221 44.13414 10.86909 
323 88.16777 66.17794 100.0000 63.56263 51.97084 101.2344 
324 74.76489 0.00000 100.0000 40.05651 19.07058 96.12167 
325 100.0000 68.40763 56.75349 61.93918 54.20337 34.47720 
326 0.00000 40.84972 0.00000 5.917839 10.83430 2.639294 
327 19.55471 86.89539 51.48623 32.12399 54.79617 31.11170 
328 69.27464 0.00000 70.67484 27.05138 13.48616 44.91642 
329 85.35594 42.41487 78.06891 45.06605 30.44323 57.91719 
330 100.0000 50.75109 62.51555 55.88850 40.19555 38.34504 
331 61.26256 13.09600 14.35463 15.49003 9.248908 3.530328 
332 100.0000 82.82256 71.03393 73.21365 71.57741 54.18515 
333 9.834430 70.94835 100.0000 35.61341 41.03535 100.5955 
334 100.0000 100.0000 11.26727 77.45168 92.93919 15.85434 
335 0.00000 40.54993 48.19668 9.375459 12.09556 21.22588 
336 16.83778 41.04831 56.09438 11.86412 13.40737 28.57346 
337 11.41197 100.0000 81.62140 48.19842 76.57541 72.28439 
338 88.33119 100.0000 66.68291 74.41117 90.56514 52.10412 
339 46.68888 17.88621 31.82550 10.96837 7.382269 9.446278 
340 85.02506 71.25672 76.67148 55.58848 52.50242 59.49688 
341 26.46858 100.0000 13.54534 39.02434 73.11698 14.45752 
342 100.0000 100.0000 100.0000 95.10649 100.0000 108.8440 
343 14.07690 50.34274 0.00000 9.407714 16.74935 3.597265 
344 43.55837 21.83235 37.85110 10.99828 7.965330 12.90176 
345 22.45185 16.43790 87.48988 16.70220 8.781512 70.87976 
346 29.99142 11.45820 39.48327 6.739247 4.345443 13.45540 
347 59.30180 52.74440 41.07562 24.69638 25.55558 17.65841 
348 0.00000 0.00000 25.39097 1.937435 1.374915 5.937567 
349 28.99385 46.60633 100.0000 28.17534 22.61105 97.43085 
350 80.36335 11.25347 100.0000 44.20536 21.84445 96.43860 
351 100.0000 44.75257 100.0000 65.67220 41.13965 99.03251 
352 58.23052 10.40821 100.0000 31.42774 15.18211 95.82555 
353 77.53058 74.54746 55.93799 47.11315 51.29857 33.87443 
354 0.00000 11.20605 100.0000 19.29588 8.996744 95.27055 
355 37.88918 0.00000 36.01457 7.746085 4.257892 11.26370 
356 56.19428 77.86982 90.69127 46.70599 52.77428 83.64790 
357 0.00000 46.89510 65.12015 14.42007 16.92611 39.12090 
358 27.44729 47.02046 38.99156 12.38836 16.46346 15.18168 
359 45.02176 22.63332 14.28691 9.780374 7.692178 3.516657 
360 64.46105 6.008492 63.30007 22.81383 11.76411 35.51063 
361 76.40412 80.40873 0.00000 44.86342 55.70976 9.250371 
362 86.40323 39.50302 15.14763 35.25868 25.42266 5.778811 
363 61.00483 13.89606 68.09882 22.62886 12.18294 41.49974 
364 45.91424 47.79421 43.25257 17.95182 19.62005 18.39349 
365 49.07952 72.83264 0.00000 26.72252 39.97794 7.169120 
366 40.75379 20.51271 0.00000 7.872683 6.368208 1.674249 
367 100.0000 21.83198 82.93714 54.91684 29.50080 65.01158 
368 100.0000 61.46611 13.19116 54.00449 45.94832 8.356376 
369 18.60172 30.16413 100.0000 22.67358 13.99910 96.05825 
370 0.00000 91.07442 0.00000 29.63718 58.26635 10.54581 
371 81.48678 12.74062 46.52870 30.49626 16.60789 19.63333 
372 15.26313 78.71486 71.21642 30.76006 45.97798 51.72824 
373 46.93503 88.82568 76.04674 45.32041 62.90203 61.11165 
374 100.0000 56.94940 0.00000 51.88858 42.16617 6.266061 
375 10.14093 0.00000 40.02664 3.796063 2.166623 13.54393 
376 62.28149 51.33691 13.45519 23.43426 24.44170 5.865438 
377 9.498701 0.00000 26.81856 2.422978 1.612844 6.520753 
378 63.31851 0.00000 0.00000 15.64428 8.550638 1.686205 
379 54.98055 13.16347 34.79827 14.06970 8.356004 11.03359 
380 67.13804 53.45843 81.34580 37.63587 31.59662 63.71016 
381 0.00000 40.72499 29.62243 7.161837 11.28111 9.347969 
382 48.63059 0.00000 75.40873 18.68295 9.024083 51.17156 
383 44.05609 69.53731 47.72456 26.74733 37.07028 24.74328 
384 79.18740 55.43903 57.51538 39.76837 34.46498 32.61740 
385 89.03505 0.00000 50.12897 36.22256 18.71595 22.73024 
386 17.53361 60.33480 47.01001 16.82503 25.71632 22.49533 
387 65.58156 0.00000 49.56138 20.57976 10.66129 21.50905 
388 33.39120 82.98315 0.00000 27.93511 49.33827 8.912072 
389 18.49315 14.34726 60.11088 8.526091 5.172593 31.37527 
390 44.48597 0.00000 17.31154 8.251275 4.686406 3.703563 
391 0.00000 11.60421 65.47110 8.350943 4.658981 37.50055 
392 0.00000 53.25457 100.0000 27.55994 25.52254 98.02526 
393 68.19849 100.0000 41.65253 56.25337 81.73509 27.23545 
394 54.38658 24.41571 54.04853 17.73869 11.65867 25.92129 
395 27.88125 69.85349 4.257013 19.42610 33.92402 6.694033 
396 16.35111 23.47710 23.73407 4.347240 4.994931 5.900352 
397 37.32108 40.79337 42.10269 13.23973 14.28211 16.79331 
398 73.28536 100.0000 11.63710 56.89337 82.33792 14.95171 
399 32.46980 11.75924 0.00000 4.973523 3.730443 1.317777 
400 66.03080 100.0000 0.00000 52.47309 80.08517 13.55475 
401 90.08688 100.0000 76.55807 78.40333 92.32393 65.81178 
402 53.86407 29.20322 70.94424 21.97547 14.50527 45.74533 
403 0.00000 72.28259 89.57574 31.95881 40.63620 80.00937 
404 56.38961 65.31022 0.00000 25.95014 34.04617 6.064794 
405 82.10678 0.00000 0.00000 27.13761 14.47664 2.224763 
