Patch Sets/ac_3190_wb16.ti1
CTI1   

DESCRIPTOR "Argyll Calibration Target chart information 1"
ORIGINATOR "Argyll targen"
CREATED "Wed Apr  9 07:56:24 2025"
APPROX_WHITE_POINT "95.106486 100.000000 108.844025"
COLOR_REP "iRGB"
WHITE_COLOR_PATCHES "16"
BLACK_COLOR_PATCHES "16"
OFPS_PATCHES "3158"

NUMBER_OF_FIELDS 7
BEGIN_DATA_FORMAT
SAMPLE_ID RGB_R RGB_G RGB_B XYZ_X XYZ_Y XYZ_Z 
END_DATA_FORMAT

NUMBER_OF_SETS 3190
BEGIN_DATA
1 100.0000 100.0000 100.0000 95.10649 100.0000 108.8440 
2 27.36773 63.95649 64.83145 23.22158 30.94457 41.01352 
3 27.05298 70.67691 82.21382 31.10721 39.24571 66.94927 
4 66.60296 92.02862 100.0000 64.57014 75.22562 105.6701 
5 11.02773 35.09519 100.0000 22.92618 15.54780 96.34390 
6 73.29667 75.15530 81.50399 51.10523 53.11635 67.41177 
7 71.57668 25.07788 21.44225 22.70911 14.80492 6.060785 
8 0.00000 68.24112 62.12993 22.13594 33.43175 38.37434 
9 0.00000 0.00000 70.25372 9.070772 4.227799 43.50959 
10 25.23891 15.57694 61.01810 9.766001 5.937687 32.46173 
11 100.0000 26.68429 55.16781 48.61584 28.04445 28.54328 
12 76.08643 10.58997 89.16268 37.19800 18.64625 74.73000 
13 70.46357 55.24058 0.00000 28.97260 29.38898 5.006634 
14 59.93176 19.69973 66.29615 22.20864 12.80527 39.36086 
15 25.12123 28.64019 54.60919 10.09054 8.655331 26.28447 
16 22.55778 42.55703 5.514429 8.142974 12.63442 3.283192 
17 26.76398 75.93971 100.0000 40.27101 47.41284 101.5813 
18 64.44165 24.91961 80.90692 29.08216 16.85551 60.60537 
19 43.06626 67.13701 4.752569 21.86639 33.20511 6.465778 
20 63.22924 46.70094 100.0000 40.01151 28.75599 97.99361 
21 84.59799 92.28903 54.61361 63.09946 76.27790 36.55000 
22 93.57321 40.92137 33.62535 42.70219 29.63636 12.99669 
23 32.12268 53.00998 4.746016 13.10619 20.00109 4.377868 
24 39.03601 100.0000 91.80135 56.27586 80.34358 90.56132 
25 23.46897 15.64470 27.08432 4.649016 3.867918 6.947530 
26 64.89048 100.0000 17.75092 52.33921 79.96131 16.02300 
27 65.00393 51.03770 53.25313 28.82804 26.59917 27.46708 
28 5.761705 62.85935 92.38865 28.61776 32.05849 83.82003 
29 73.01589 51.56015 4.812122 29.26122 27.58445 4.996229 
30 79.69785 100.0000 0.00000 60.85099 84.40484 13.94732 
31 0.00000 28.80913 83.10030 15.14327 10.47855 63.70653 
32 76.05274 61.55793 93.56509 50.30897 42.35620 86.94222 
33 3.455421 4.474948 8.685548 1.377212 1.360601 1.808877 
34 0.00000 0.00000 100.0000 18.87111 8.147314 95.12896 
35 100.0000 0.00000 0.00000 41.83017 22.05217 2.913230 
36 0.00000 100.0000 100.0000 54.27632 78.94783 106.9308 
37 0.00000 100.0000 0.00000 36.40521 71.80052 12.80184 
38 100.0000 0.00000 100.0000 59.70128 29.19948 97.04219 
39 0.00000 48.80980 100.0000 26.06508 22.53325 97.52697 
40 0.00000 73.89053 0.00000 18.89394 36.78288 6.964698 
41 100.0000 100.0000 100.0000 95.10649 100.0000 108.8440 
42 100.0000 0.00000 50.79857 45.78875 23.63535 23.76347 
43 100.0000 75.99033 100.0000 78.75219 67.29598 103.3925 
44 100.0000 46.94408 0.00000 48.44521 35.28041 5.118264 
45 23.72049 0.00000 0.00000 2.874240 1.966364 1.087824 
46 100.0000 100.0000 57.62890 82.44605 94.93662 42.16018 
47 0.00000 100.0000 54.76070 41.06566 73.66440 37.34889 
48 48.57456 100.0000 100.0000 62.48660 83.18108 107.3155 
49 48.90865 100.0000 0.00000 44.73777 76.09681 13.19228 
50 36.59409 0.00000 100.0000 23.37207 10.46803 95.33987 
51 0.00000 23.68688 0.00000 2.620734 4.241015 1.540249 
52 54.40678 0.00000 0.00000 11.49827 6.412940 1.491930 
53 0.00000 0.00000 40.20254 3.399951 1.959829 13.64079 
54 100.0000 18.11814 100.0000 60.67638 31.14942 97.36723 
55 0.00000 33.25736 37.16464 6.235930 8.215252 12.78426 
56 29.11700 26.81469 0.00000 5.884235 6.589396 1.821673 
57 50.85179 26.75751 100.0000 29.99633 16.94156 96.24056 
58 100.0000 71.03481 69.99078 66.22176 58.02433 50.53223 
59 61.64729 0.00000 37.54232 16.88347 8.949185 12.59318 
60 54.09367 100.0000 44.37205 49.73166 78.32938 28.87506 
61 64.63738 0.00000 100.0000 34.19800 16.04991 95.84715 
62 0.00000 75.53062 100.0000 37.66511 45.73006 101.3937 
63 100.0000 100.0000 100.0000 95.10649 100.0000 108.8440 
64 100.0000 100.0000 23.81748 78.06227 93.18339 19.07040 
65 100.0000 40.19296 44.77808 49.59997 32.76218 20.39107 
66 60.19769 63.43227 100.0000 44.72082 40.39649 99.99253 
67 100.0000 82.43259 0.00000 64.69779 67.78102 10.53583 
68 77.80737 100.0000 100.0000 77.44042 90.89132 108.0162 
69 0.00000 0.00000 0.00000 1.000000 1.000000 1.000000 
70 100.0000 0.00000 31.28589 43.25571 22.62230 10.42172 
71 0.00000 100.0000 27.59924 37.51160 72.24300 18.62931 
72 0.00000 50.88626 80.46524 19.80438 21.11383 61.20671 
73 100.0000 35.38114 100.0000 63.33973 36.47537 98.25502 
74 32.91217 66.96852 0.00000 18.98866 31.60978 5.961150 
75 0.00000 57.35471 0.00000 11.21579 21.42873 4.405293 
76 43.34794 0.00000 57.26274 12.57132 6.371866 28.36605 
77 100.0000 0.00000 70.20233 49.88781 25.27472 45.35364 
78 0.00000 54.41590 33.50893 11.74784 19.86725 12.67953 
79 0.00000 100.0000 91.98212 51.18831 77.71282 90.66593 
80 100.0000 100.0000 100.0000 95.10649 100.0000 108.8440 
81 100.0000 19.49099 0.00000 42.94688 24.28528 3.285471 
82 33.95533 100.0000 61.06652 46.17627 76.15402 44.15200 
83 100.0000 63.87147 31.42120 56.21313 48.51333 14.80314 
84 0.00000 19.74068 100.0000 20.01478 10.43435 95.51019 
85 69.18582 0.00000 0.00000 18.82161 10.18888 1.835089 
86 18.48886 100.0000 0.00000 37.57255 72.40240 12.85653 
87 9.840825 100.0000 100.0000 54.67554 79.15367 106.9495 
88 0.00000 0.00000 9.604383 1.168342 1.067326 1.886675 
89 17.39475 71.88485 100.0000 36.74284 42.33693 100.7873 
90 100.0000 100.0000 75.03345 86.58273 96.59104 63.94854 
91 0.00000 19.68456 78.08554 12.35781 7.362296 55.21016 
92 20.10652 0.00000 37.85317 4.479704 2.549577 12.20095 
93 47.13260 26.04159 56.75951 15.68717 10.88746 28.55811 
94 66.01166 100.0000 71.91258 60.96423 83.47990 58.33230 
95 80.76265 0.00000 54.56751 30.81013 15.83528 26.53875 
96 27.21129 50.56733 100.0000 29.09378 24.94295 97.83260 
97 69.91993 40.00850 0.00000 23.95126 19.81851 3.423718 
98 20.75347 100.0000 44.93391 40.89477 73.76372 28.88198 
99 100.0000 18.78869 68.29004 50.45079 27.16824 43.17363 
100 0.00000 75.62491 48.28865 23.39469 40.10683 25.97075 
101 17.92953 0.00000 100.0000 19.97419 8.716067 95.18065 
102 55.39933 54.98194 43.13651 24.02162 26.37163 19.29326 
103 67.36497 54.87924 100.0000 44.94433 35.35840 99.00826 
104 100.0000 60.42900 100.0000 71.15759 52.10890 100.8610 
105 100.0000 100.0000 40.82494 79.71452 93.84419 27.77296 
106 70.44115 100.0000 28.62397 56.14459 81.84052 19.94090 
107 100.0000 50.87220 64.78908 56.44068 40.48118 41.05361 
108 100.0000 64.45027 0.00000 55.03570 48.45953 7.315110 
109 0.00000 100.0000 73.63475 45.36766 75.38493 60.00800 
110 54.74879 82.35860 0.00000 34.46415 52.12395 9.105916 
111 34.27447 0.00000 90.02816 19.01038 8.657410 75.35485 
112 51.61763 0.00000 16.34424 10.77128 5.990900 3.588185 
113 57.98742 0.00000 82.69527 24.69330 11.87166 62.79855 
114 0.00000 44.83032 51.89103 11.13856 14.64247 24.83221 
115 29.84268 84.75156 100.0000 46.17155 58.34959 103.3816 
116 100.0000 33.28949 25.67297 45.99584 28.84958 9.028867 
117 75.07076 18.91920 100.0000 41.30716 21.28320 96.48290 
118 32.50571 31.06316 100.0000 25.17663 15.52927 96.22179 
119 48.36264 100.0000 36.91082 46.54430 76.79626 23.74775 
120 82.07020 0.00000 100.0000 44.98253 21.61045 96.35250 
121 0.00000 48.85870 0.00000 8.209530 15.41704 3.403197 
122 0.00000 58.99515 100.0000 29.73852 29.87910 98.75146 
123 48.19004 47.02751 0.00000 15.71120 18.44017 3.591648 
124 0.00000 0.00000 30.22694 2.329032 1.531529 8.000150 
125 0.00000 75.52342 19.06240 20.33074 38.79100 10.11156 
126 0.00000 28.12969 62.69726 9.548887 8.062000 34.79282 
127 27.55943 0.00000 58.31336 8.867771 4.438147 29.28281 
128 69.81146 31.74737 0.00000 22.09200 16.19386 2.821981 
129 59.74307 100.0000 0.00000 49.28942 78.44366 13.40557 
130 100.0000 100.0000 100.0000 95.10649 100.0000 108.8440 
131 73.73657 0.00000 25.13905 22.45902 11.95802 6.803939 
132 71.80905 82.61780 100.0000 61.21551 64.09026 103.6974 
133 69.54925 71.22190 0.00000 35.51464 43.26034 7.339653 
134 85.29629 100.0000 54.13080 69.42951 88.30232 38.07209 
135 100.0000 77.83889 45.91182 65.11823 63.52895 26.38234 
136 0.00000 27.30944 10.14249 3.329237 5.364909 2.679773 
137 19.32510 100.0000 100.0000 55.54372 79.60131 106.9902 
138 81.98430 53.19697 61.49249 41.72747 34.16908 36.76061 
139 84.74359 0.00000 0.00000 29.06561 15.47072 2.315106 
140 33.14429 55.10919 34.69987 15.79151 22.31634 13.58323 
141 30.42518 100.0000 8.567606 39.62418 73.44381 13.69358 
142 89.56234 100.0000 100.0000 86.07402 95.34283 108.4208 
143 18.93974 39.75908 0.00000 6.865366 10.91744 2.605436 
144 27.54188 100.0000 70.10082 46.95422 76.31062 55.22374 
145 69.29158 61.40795 71.21432 39.06963 37.28137 49.60903 
146 100.0000 30.59799 91.30563 59.06736 33.26394 80.38650 
147 0.00000 0.00000 59.39195 6.566774 3.226358 30.32077 
148 100.0000 84.18018 100.0000 83.67485 77.13993 105.0334 
149 100.0000 20.72318 35.70857 44.95566 25.30741 13.19129 
150 37.29138 34.39808 26.90371 10.16539 10.69757 7.901293 
151 57.86698 36.77912 100.0000 34.82821 22.22856 97.00662 
152 48.61315 57.16850 100.0000 37.23877 32.67160 98.89547 
153 0.00000 0.00000 90.49156 15.24639 6.697656 76.03720 
154 70.83826 22.17670 40.37293 23.63083 14.50585 15.10988 
155 0.00000 89.97457 73.59348 37.81192 60.29351 57.43408 
156 83.67452 0.00000 76.91248 38.15363 19.01382 54.31362 
157 46.78689 0.00000 0.00000 8.573875 4.905115 1.354899 
158 8.131769 0.00000 0.00000 1.300677 1.155030 1.014089 
159 45.68736 0.00000 37.92409 10.31999 5.559886 12.51801 
160 0.00000 16.57351 25.20786 2.753150 3.027364 6.143950 
161 57.10210 100.0000 89.12757 61.83837 83.32175 85.85221 
162 91.61255 0.00000 32.77453 36.03643 18.88354 10.82677 
163 100.0000 91.29394 17.98788 71.10953 79.82568 15.06944 
164 64.74352 25.80381 72.04506 26.83635 16.17946 47.32208 
165 0.00000 91.35101 0.00000 29.83442 58.66078 10.61156 
166 74.10478 79.88216 38.79265 45.30372 55.20920 20.80096 
167 100.0000 0.00000 80.39469 52.74117 26.41588 60.38261 
168 51.88447 76.34352 100.0000 47.58930 51.52329 101.9893 
169 32.82809 0.00000 23.17805 5.378586 3.166900 5.299244 
170 10.37366 90.30691 0.00000 29.52731 57.40357 10.38505 
171 55.92185 18.28982 0.00000 13.13900 8.731453 1.853056 
172 0.00000 42.65050 88.32188 19.87470 17.16982 73.82721 
173 0.00000 15.37965 0.00000 1.725433 2.450663 1.241813 
174 16.84015 25.16976 86.96094 16.83044 10.36529 70.23771 
175 100.0000 69.95884 48.59705 61.26773 55.16714 27.14012 
176 84.21877 62.50536 100.0000 58.88800 47.09626 100.5396 
177 61.13831 66.48186 57.40675 33.86698 38.34123 33.56405 
178 100.0000 0.00000 9.817491 42.00427 22.12180 3.830227 
179 0.00000 40.51611 100.0000 23.70442 17.81259 96.74008 
180 0.00000 13.79563 44.77434 4.617303 3.407031 17.09100 
181 81.93420 31.83581 100.0000 47.81190 27.41269 97.32348 
182 0.00000 100.0000 8.917448 36.55576 71.86073 13.59479 
183 100.0000 0.00000 41.76701 44.43204 23.09275 16.61753 
184 100.0000 29.21004 0.00000 44.28688 26.96490 3.732140 
185 79.91255 100.0000 78.94488 71.47332 88.67024 69.12304 
186 80.58703 40.93398 24.34122 31.86469 24.14467 8.365249 
187 27.94751 8.433172 0.00000 3.866858 2.885963 1.213054 
188 46.65369 53.73120 65.45571 24.28448 25.35543 40.63755 
189 81.90419 29.09354 0.00000 29.42974 19.27521 3.030305 
190 100.0000 49.11870 17.53567 49.58630 36.82066 7.785736 
191 60.42353 0.00000 56.95699 19.28763 9.841744 28.36822 
192 39.34018 77.52290 19.54215 26.72673 43.76608 10.86974 
193 20.95879 0.00000 78.28453 12.75559 5.872318 55.20825 
194 100.0000 79.00865 85.99589 75.31596 68.70154 76.72048 
195 56.56266 0.00000 100.0000 30.29905 14.03960 95.66445 
196 0.00000 83.52602 100.0000 42.42713 55.25277 102.9810 
197 0.00000 100.0000 45.82836 39.57626 73.06874 29.50409 
198 47.55504 100.0000 18.05342 44.73784 76.04029 15.74479 
199 35.60273 42.68572 47.25461 14.03580 15.34144 20.83651 
200 26.64513 82.18114 0.00000 26.06741 47.63061 8.680812 
201 39.45518 0.00000 73.83079 15.28627 7.323219 48.73428 
202 47.49829 70.30456 50.12314 28.68421 38.59757 26.95993 
203 20.09561 100.0000 26.38386 38.78046 72.90822 18.19280 
204 100.0000 16.02449 16.24729 43.01429 23.77417 5.299975 
205 0.00000 71.19268 76.61403 27.26284 37.85052 58.07424 
206 41.62773 75.89464 86.48914 38.76195 47.17664 75.35528 
207 100.0000 85.53341 62.60511 72.93253 74.24731 44.12369 
208 0.00000 37.04973 9.566944 5.172446 9.076013 3.216455 
209 0.00000 0.00000 0.00000 1.000000 1.000000 1.000000 
210 52.11578 56.32039 0.00000 20.37734 25.56055 4.720333 
211 100.0000 70.78792 81.39539 69.31004 59.05693 67.42310 
212 0.00000 83.19098 28.32791 25.50957 48.14734 14.92147 
213 18.69612 16.51250 100.0000 20.88631 10.40854 95.45931 
214 23.15614 34.68458 53.25616 10.66602 10.65821 25.34941 
215 23.97177 100.0000 80.95448 49.40081 77.21922 71.26386 
216 54.03742 58.60436 17.82212 22.53116 27.94127 7.569859 
217 0.00000 58.40288 22.55622 12.37351 22.55349 8.462283 
218 100.0000 35.97307 71.48673 53.98599 32.93879 48.35776 
219 100.0000 71.95545 17.81128 59.17214 55.96819 11.04727 
220 100.0000 18.01637 79.50629 53.43734 28.23818 59.28805 
221 15.67656 0.00000 23.17654 2.649592 1.759833 5.170853 
222 75.07157 100.0000 44.85056 60.81340 84.03522 29.75246 
223 90.78215 90.54708 0.00000 62.04908 74.42319 11.95747 
224 0.00000 44.63076 67.17049 14.24098 15.79226 41.45360 
225 12.23240 60.62679 0.00000 13.10419 24.36614 4.872841 
226 34.08614 45.91728 80.32233 22.08141 19.97265 60.63809 
227 58.05944 100.0000 100.0000 66.37693 85.18695 107.4978 
228 10.85383 43.92126 0.00000 7.202036 12.71157 2.934025 
229 0.00000 0.00000 0.00000 1.000000 1.000000 1.000000 
230 8.695985 100.0000 69.06483 44.50674 75.07895 53.74334 
231 83.14253 100.0000 13.47016 63.58149 85.77905 15.59374 
232 100.0000 49.92749 90.46274 63.62073 42.85247 80.41454 
233 64.02917 81.23582 0.00000 38.13761 52.98847 9.079319 
234 79.37036 69.89783 26.75632 42.07050 45.51918 12.88251 
235 31.29620 66.18573 50.68184 22.20358 32.26289 26.56791 
236 49.06227 37.54685 100.0000 31.37856 20.70828 96.89485 
237 100.0000 100.0000 100.0000 95.10649 100.0000 108.8440 
238 39.34121 100.0000 100.0000 59.51474 81.64878 107.1763 
239 91.47110 52.94679 0.00000 42.93161 35.35379 5.422820 
240 0.00000 56.52937 43.81993 13.77818 21.94321 19.47545 
241 47.80087 100.0000 72.65711 53.03540 79.36891 58.99207 
242 63.53625 78.68374 86.80545 49.32150 54.98342 76.86387 
243 34.78619 8.823662 100.0000 23.21562 10.82313 95.41665 
244 18.81220 20.52749 0.00000 3.436577 4.083427 1.466861 
245 67.45729 79.04767 79.55057 49.31470 55.56558 64.84994 
246 69.40987 0.00000 41.66864 21.53908 11.29057 15.47707 
247 73.97084 24.72745 0.00000 23.44877 15.19099 2.556939 
248 100.0000 19.31209 49.72547 46.70769 25.75883 23.18822 
249 37.11642 100.0000 41.44928 43.60147 75.21482 26.50333 
250 42.77880 10.46165 79.07492 18.14820 9.190759 56.79289 
251 19.02767 39.78136 30.80237 8.262409 11.48617 9.881559 
252 16.35401 0.00000 67.99334 9.438191 4.482702 40.57244 
253 100.0000 100.0000 83.81688 89.21895 97.64536 77.83375 
254 0.00000 40.39239 0.00000 5.802184 10.60303 2.600741 
255 81.72389 38.93300 82.52860 42.88100 27.85050 64.64896 
256 65.08872 29.95246 19.39939 19.70812 14.41736 5.533776 
257 89.96083 100.0000 28.35269 69.69155 88.82799 20.45779 
258 100.0000 54.06535 39.18945 53.08379 40.91796 17.88507 
259 100.0000 89.96988 27.34813 70.77392 78.19365 17.92104 
260 9.944282 69.11748 0.00000 16.82551 32.04446 6.158986 
261 100.0000 44.04282 100.0000 65.47180 40.73891 98.96571 
262 17.95255 91.38825 100.0000 48.83783 66.43141 104.8012 
263 61.84039 70.06239 20.32219 31.40302 40.19185 10.16039 
264 16.16879 0.00000 45.28456 5.005507 2.707725 17.32356 
265 7.194487 55.15293 100.0000 28.50243 27.03115 98.26683 
266 90.91694 100.0000 0.00000 69.30123 88.76181 14.34329 
267 0.00000 38.49417 30.04331 6.651896 10.20218 9.360523 
268 68.68153 100.0000 53.35902 58.34388 82.60271 36.82242 
269 89.03865 70.77178 100.0000 66.50306 56.82792 102.0170 
270 87.45065 80.95058 69.68743 61.00901 63.60558 51.48059 
271 0.00000 91.91584 54.36659 34.82729 61.30590 34.91016 
272 45.59047 48.80381 70.34070 23.44969 22.31292 46.35992 
273 83.19245 0.00000 46.45498 31.18650 16.18664 19.45731 
274 100.0000 9.480127 0.00000 42.15713 22.70600 3.022219 
275 38.74177 31.41099 0.00000 8.919241 9.308930 2.186774 
276 100.0000 0.00000 60.25998 47.57733 24.35067 33.18414 
277 85.56961 67.71802 32.88978 46.00020 45.88775 15.57413 
278 100.0000 9.210064 100.0000 60.01427 29.82538 97.14652 
279 0.00000 63.20119 29.94872 14.95098 26.81141 12.08562 
280 24.08301 86.98922 87.10739 41.81658 58.84651 78.53981 
281 0.00000 25.76115 54.05964 7.442435 6.633841 25.50427 
282 41.72295 52.66011 0.00000 15.41054 21.01445 4.104395 
283 25.40611 88.24981 30.73248 31.18688 55.98387 17.23012 
284 48.89305 14.72319 24.19973 10.85172 6.978085 6.107011 
285 100.0000 100.0000 66.12456 84.29034 95.67422 51.87425 
286 100.0000 100.0000 100.0000 95.10649 100.0000 108.8440 
287 40.80493 100.0000 81.82890 53.41681 79.25855 72.86633 
288 18.56258 100.0000 53.30032 41.97515 74.16416 36.00041 
289 90.24498 71.12940 0.00000 49.78500 50.54745 7.994684 
290 89.92911 29.76538 50.56438 39.56421 24.21813 23.99721 
291 65.79848 37.75717 52.62002 25.38265 19.26153 25.64204 
292 38.62618 100.0000 0.00000 41.44539 74.39925 13.03801 
293 0.00000 24.36102 30.85288 4.097637 4.977743 8.868795 
294 82.30453 85.87029 100.0000 70.22278 71.83455 104.7179 
295 91.62720 55.14967 100.0000 61.72841 44.16078 99.82339 
296 54.63561 22.44114 85.19401 25.48622 14.35352 67.46260 
297 71.95411 90.23088 0.00000 48.48884 67.10082 11.25823 
298 91.43152 37.35626 0.00000 38.39365 26.32762 3.919512 
299 100.0000 100.0000 7.964583 77.36314 92.90378 15.38801 
300 38.94478 74.70605 67.65760 31.88904 43.28406 46.44979 
301 20.39450 84.15968 54.51572 30.97793 51.48298 33.36083 
302 62.78051 85.72502 100.0000 58.21881 65.50344 104.1280 
303 32.04777 60.35114 100.0000 33.71617 32.75584 99.09726 
304 32.53311 61.77580 8.981306 16.70648 26.92876 5.975455 
305 74.27733 100.0000 18.92582 57.81663 82.77860 16.59045 
306 58.02176 0.00000 73.95717 22.13375 10.84981 49.23529 
307 8.205966 100.0000 80.44720 47.63685 76.32770 70.36984 
308 38.37961 100.0000 32.63463 42.93229 74.98613 21.22109 
309 41.87089 18.77237 39.64228 10.34703 7.095115 13.89915 
310 35.63025 79.23835 0.00000 26.18199 45.03819 8.174365 
311 24.72346 65.62678 31.99431 18.26956 30.13064 13.53711 
312 39.73721 0.00000 0.00000 6.350140 3.758550 1.250698 
313 100.0000 92.56608 100.0000 89.41153 88.61168 106.9457 
314 60.88900 75.80927 48.83024 37.01802 47.27387 27.08937 
315 0.00000 0.00000 20.15384 1.600221 1.240051 4.161426 
316 82.17068 0.00000 85.51778 39.72197 19.51488 68.26893 
317 87.15937 59.58363 44.59701 45.00110 39.82506 21.86024 
318 78.21182 69.49502 100.0000 57.91374 51.44148 101.4297 
319 23.35142 67.32060 72.35243 25.97936 34.46702 51.32417 
320 85.85527 20.51134 15.41283 31.49939 18.50747 4.700100 
321 54.55420 8.148239 100.0000 29.69297 14.11517 95.71096 
322 62.00619 39.06388 77.51562 29.51204 21.17986 56.10126 
323 43.02571 0.00000 82.33053 18.84203 8.868030 61.92375 
324 77.43671 24.22015 79.11141 36.13409 20.41018 58.06836 
325 0.00000 40.11979 57.36472 10.89250 12.52976 29.74830 
326 100.0000 45.51287 54.85454 52.69808 36.30135 29.61549 
327 100.0000 80.84190 31.58782 65.17130 66.40217 17.86632 
328 35.93003 33.17158 76.55231 18.29270 13.51115 53.75590 
329 60.47395 35.25397 38.05712 19.98307 15.90005 14.08702 
330 0.00000 8.819617 8.814472 1.441406 1.645950 1.877241 
331 16.82802 0.00000 7.621615 2.102781 1.554707 1.678585 
332 37.22690 0.00000 38.86342 7.899704 4.299038 12.98862 
333 0.00000 0.00000 0.00000 1.000000 1.000000 1.000000 
334 25.01981 46.01755 0.00000 9.418542 14.74700 3.210182 
335 67.20853 17.66678 0.00000 18.64112 11.47750 2.093336 
336 84.01985 0.00000 19.92798 29.11606 15.42877 5.384971 
337 59.62422 0.00000 18.19088 14.32379 7.812439 4.212729 
338 47.91530 92.29475 100.0000 56.35657 71.27622 105.3404 
339 10.79820 46.98248 54.58577 12.71637 16.34045 27.60693 
340 100.0000 9.583099 82.71389 53.79401 27.36869 64.28813 
341 100.0000 64.99188 10.22178 55.46776 49.02704 8.373515 
342 42.52722 27.03742 17.75711 9.754552 8.581126 4.488995 
343 91.21203 11.05530 0.00000 34.55380 18.91730 2.691342 
344 0.00000 77.19319 84.93247 33.07874 45.39768 72.60498 
345 0.00000 100.0000 63.70686 42.90207 74.39885 47.02146 
346 90.95110 8.934009 100.0000 52.09418 25.72111 96.77142 
347 27.56839 51.68728 73.85844 20.68842 22.19275 51.35957 
348 92.16648 100.0000 45.05379 73.39112 90.51693 30.49539 
349 0.00000 82.65315 0.00000 24.00552 47.00460 8.668570 
350 0.00000 9.889359 72.76093 10.07558 5.187683 47.08108 
351 0.00000 64.66181 91.89224 29.05198 33.49867 83.12581 
352 0.00000 82.35133 66.79861 31.03228 49.51317 46.60970 
353 52.89142 80.86045 62.69036 39.04100 52.38895 41.78794 
354 100.0000 40.44442 18.91456 47.17840 31.89450 7.325542 
355 49.44252 36.85866 0.00000 13.49221 13.32121 2.720410 
356 0.00000 53.49732 70.58101 17.92995 21.80939 46.87681 
357 0.00000 78.26366 38.67609 23.56348 42.58184 19.43496 
358 85.35863 12.21562 53.99482 34.53544 18.49396 26.30468 
359 64.99123 49.24078 23.10101 24.62410 23.97171 8.275093 
360 22.72588 57.95650 100.0000 31.04798 29.93790 98.69384 
361 45.28184 47.57153 100.0000 32.73884 25.39933 97.72871 
362 0.00000 0.00000 80.11494 11.82591 5.329681 58.02119 
363 22.12296 69.14512 6.628395 18.17059 32.74684 6.744938 
364 82.59001 52.64436 100.0000 53.82989 38.74833 99.19463 
365 70.43356 88.76295 64.24506 53.18298 67.24048 45.73737 
366 0.00000 9.190542 100.0000 19.18311 8.771223 95.23296 
367 90.96519 26.91416 100.0000 53.89126 29.29762 97.36714 
368 61.14348 61.18621 82.36540 37.85407 36.14438 66.24506 
369 48.03255 81.92745 40.26140 33.97515 51.19583 21.57336 
370 85.45915 62.00714 85.48688 54.25657 45.00585 72.37036 
371 100.0000 85.36795 51.59229 70.66671 73.16791 32.72357 
372 77.17974 39.93944 50.42867 32.33313 23.66413 24.15196 
373 9.299583 0.00000 100.0000 19.23735 8.336152 95.14612 
374 91.32869 100.0000 86.70314 82.57347 94.10898 82.48422 
375 18.60870 16.81112 11.86445 3.267214 3.404126 2.577977 
376 18.10277 31.25295 36.60343 6.911993 8.002703 12.37396 
377 10.10633 100.0000 91.26976 51.34637 77.82415 89.32681 
378 84.94237 100.0000 72.41376 73.25357 89.80097 59.60085 
379 100.0000 34.11018 80.23854 56.06648 33.14163 61.25648 
380 47.03310 18.40391 0.00000 9.663410 6.956432 1.693479 
381 10.07087 100.0000 10.29148 37.00626 72.08875 13.80780 
382 66.60316 38.55745 100.0000 39.60348 25.29913 97.34782 
383 100.0000 100.0000 49.43045 80.96700 94.34510 34.36988 
384 58.02999 21.67132 100.0000 32.32325 17.10908 96.15034 
385 16.10879 0.00000 88.65085 15.50795 6.907336 72.67266 
386 19.37495 40.76943 18.04281 7.659370 11.64544 5.264790 
387 100.0000 72.99199 0.00000 59.24191 56.87077 8.717191 
388 21.84506 40.43392 100.0000 25.28212 18.59535 96.80808 
389 59.67178 72.46261 0.00000 30.98168 41.88340 7.312608 
390 62.65976 100.0000 26.38623 51.72687 79.58341 18.80039 
391 73.71444 65.56460 44.08545 38.16086 40.17889 21.90719 
392 84.03908 100.0000 94.18670 79.54607 92.23989 96.24983 
393 0.00000 83.97379 17.76236 25.31596 48.86588 11.44688 
394 18.19781 0.00000 56.57861 7.138664 3.586202 27.41510 
395 52.02840 65.36903 0.00000 24.15125 33.15890 5.988270 
396 76.14442 30.50073 59.53334 31.34744 19.97992 32.40238 
397 63.35712 100.0000 62.16420 57.22391 81.82282 45.90641 
398 44.11523 8.321971 100.0000 25.81873 12.12956 95.53173 
399 75.41645 100.0000 93.07067 73.18809 89.00980 93.78120 
400 81.95524 100.0000 36.74261 64.42121 86.01585 24.48604 
401 66.04606 0.00000 65.65953 24.02163 12.06666 38.33608 
402 21.22376 34.42832 72.48151 14.60303 12.11575 47.78888 
403 54.28006 47.39654 100.0000 36.06900 27.03662 97.86936 
404 75.85010 62.70394 13.61841 35.60381 37.25228 7.728952 
405 0.00000 65.76088 46.12443 18.02228 29.89629 22.53683 
